polaris-icons/icons/MetafieldsFilledIcon.svg

<svg xmlns="http://www.w3.org/2000/svg" viewBox="0 0 20 20"><path fill-rule="evenodd" d="M5 5.5a1.5 1.5 0 0 1 1.5-1.5h1a1.5 1.5 0 0 1 1.5 1.5v.5h2v-.5a1.5 1.5 0 0 1 1.5-1.5h1a1.5 1.5 0 0 1 1.5 1.5v1.273l.849.398a2 2 0 0 1 1.151 1.811v4.518a2.5 2.5 0 0 1-2.5 2.5h-9a2.5 2.5 0 0 1-2.5-2.5v-4.518a2 2 0 0 1 1.151-1.81l.849-.4v-1.272Zm.75 4a.75.75 0 0 0 0 1.5h8.5a.75.75 0 0 0 0-1.5h-8.5Z" clip-rule="evenodd"/></svg>

<svg xmlns="http://www.w3.org/2000/svg" viewBox="0 0 20 20"><path fill-rule="evenodd" d="M5 5.5A1.5 1.5 0 0 1 6.5 4h1A1.5 1.5 0 0 1 9 5.5V6h2v-.5A1.5 1.5 0 0 1 12.5 4h1A1.5 1.5 0 0 1 15 5.5v1.273l.849.398A2 2 0 0 1 17 8.982V13.5a2.5 2.5 0 0 1-2.5 2.5h-9A2.5 2.5 0 0 1 3 13.5V8.982a2 2 0 0 1 1.151-1.81L5 6.772V5.5Zm.75 4a.75.75 0 0 0 0 1.5h8.5a.75.75 0 0 0 0-1.5h-8.5Z" clip-rule="evenodd"/></svg>
